!!! OTL: Berkowitz510
!!! Chapter: 1
!!! Section: IV
!!! Page: 128
!!! Mode: 
!!! Encoder: DJB
**kern
*staff1
*I"Piano
=1-
*clefG2
*k[b-e-a-d-]
*A-:
*M6/8
8f/
4G/
8.A-/L
16B-/L
16c/
16e-/JJ
=2
8cc\
4d-/
8b-\
4c/
=3
8a-/L
8B-/
8d-/J
4A-/
8G/
=4
8F/L
8e-/
8B-/J
8c/L
8b-/
8a-/J
=5
8g-/L
8A-/
16B-/L
16c/JJ
8d-/L
8ee-/
8dd-/J
=6
8b-/L
8c/
8b-/J
8a-/L
8B-/
8d-/J
=7
8e-/L
8.f/
16g/Jk
8a-/L
8B-/
8f/J
=8
!!linebreak:original
8e-/L
8.F/
16G/Jk
4.A-/
==
*-
